src/assets/svg/source/shared.svg

<svg width="58" height="58" viewBox="0 0 58 58" fill="none" xmlns="http://www.w3.org/2000/svg">
<g filter="url(#filter0_d)">
<rect x="4" width="50" height="50" rx="3" fill="#4D7962"/>
</g>
<g filter="url(#filter1_d)">
<path d="M37 26C36.31 26 35.64 26.1 35 26.28C34.38 26.46 33.8 26.72 33.26 27.06C33.45 27.15 33.64 27.26 33.82 27.38C34.28 27.66 34.71 27.99 35.11 28.36C36.45 29.57 37.41 31.18 37.81 33C37.93 33.59 38 34.2 38 34.83V35H43C43.55 35 44 34.55 44 34V32.83C44 29.06 40.86 26 37 26Z" fill="#DEF4E8"/>
<path d="M21 25C21.35 25 21.69 24.97 22.03 24.91C21.69 24.31 21.43 23.67 21.25 22.99C21.09 22.36 21 21.69 21 21C21 18.93 21.8 17.03 23.1 15.61C23.56 15.1 24.0901 14.65 24.68 14.28C23.65 13.47 22.36 13 21 13C17.69 13 15 15.69 15 19C15 22.31 17.69 25 21 25Z" fill="#DEF4E8"/>
<path d="M24.49 17.06C24.44 17.12 24.38 17.17 24.34 17.23C24.28 17.29 24.24 17.35 24.2 17.41C24.11 17.53 24.03 17.64 23.96 17.76C23.9 17.85 23.84 17.93 23.8 18.02C23.74 18.11 23.69 18.2001 23.65 18.29C23.55 18.48 23.46 18.68 23.39 18.88C23.33 19.03 23.28 19.18 23.24 19.34C23.2 19.46 23.16 19.59 23.14 19.72C23.11 19.83 23.09 19.93 23.08 20.04C23.07 20.09 23.06 20.13 23.06 20.18C23.05 20.27 23.04 20.35 23.03 20.44C23.01 20.62 23 20.81 23 21C23 21.18 23.01 21.36 23.03 21.53C23.03 21.58 23.0399 21.63 23.0399 21.68C23.0499 21.82 23.0699 21.95 23.0999 22.08C23.0999 22.09 23.0999 22.09 23.0999 22.09C23.1199 22.18 23.1399 22.27 23.1599 22.36C23.1799 22.49 23.2199 22.61 23.2599 22.73C23.2899 22.85 23.3299 22.97 23.3799 23.09C23.4199 23.2 23.4599 23.31 23.5099 23.42C23.5599 23.54 23.6199 23.67 23.6899 23.79C23.7399 23.89 23.7899 23.98 23.8499 24.07C23.8799 24.12 23.9099 24.17 23.9399 24.22C24.0399 24.37 24.1399 24.52 24.2599 24.67C24.3099 24.74 24.3699 24.81 24.4299 24.88C24.6199 25.11 24.8399 25.33 25.0699 25.53C25.1499 25.6 25.2299 25.66 25.3199 25.73C25.6499 25.99 25.9999 26.21 26.3699 26.39C26.5899 26.5 26.8199 26.6 27.0499 26.67C27.1299 26.7 27.2099 26.73 27.2999 26.75C27.4799 26.8 27.6699 26.85 27.8599 26.89C28.0599 26.93 28.2499 26.9599 28.4499 26.97C28.63 26.99 28.81 27 29 27C29.19 27 29.37 26.99 29.55 26.97C29.75 26.96 29.94 26.93 30.14 26.89C30.33 26.85 30.52 26.8 30.7 26.75C30.79 26.73 30.87 26.7 30.95 26.67C31.18 26.6 31.41 26.5 31.63 26.39C31.76 26.3299 31.88 26.26 32 26.19C32.24 26.06 32.46 25.91 32.68 25.73C32.77 25.66 32.85 25.6 32.93 25.53C33.16 25.33 33.38 25.11 33.57 24.88C33.63 24.81 33.69 24.74 33.74 24.67C33.86 24.52 33.96 24.37 34.06 24.22C34.09 24.17 34.12 24.12 34.15 24.07C34.21 23.98 34.26 23.89 34.31 23.79C34.38 23.67 34.44 23.54 34.49 23.42C34.54 23.31 34.58 23.2 34.62 23.09C34.67 22.97 34.71 22.85 34.74 22.73C34.78 22.61 34.82 22.49 34.84 22.36C34.86 22.27 34.88 22.18 34.9 22.09C34.9 22.09 34.9 22.09 34.9 22.08C34.93 21.9501 34.95 21.8201 34.96 21.68C34.96 21.63 34.9699 21.58 34.9699 21.53C34.99 21.36 35 21.18 35 21C35 20.81 34.99 20.62 34.97 20.44C34.97 20.35 34.9601 20.26 34.94 20.18C34.94 20.13 34.93 20.09 34.92 20.04C34.91 19.93 34.89 19.83 34.86 19.72C34.84 19.59 34.8 19.46 34.76 19.34C34.72 19.18 34.67 19.03 34.61 18.88C34.54 18.68 34.45 18.48 34.35 18.29C34.31 18.2 34.26 18.11 34.2 18.02C34.16 17.93 34.1 17.85 34.04 17.7601C33.97 17.6401 33.89 17.5301 33.8 17.4101C33.76 17.3501 33.72 17.2901 33.66 17.2301C33.62 17.1701 33.56 17.1201 33.51 17.0601V17.05C33.36 16.87 33.2 16.71 33.02 16.56C32.93 16.47 32.84 16.39 32.75 16.32C32.49 16.11 32.22 15.93 31.94 15.77C31.83 15.71 31.72 15.65 31.61 15.6C30.82 15.21 29.93 15 29 15C28.07 15 27.18 15.21 26.39 15.6C26.28 15.65 26.17 15.71 26.06 15.77C25.78 15.93 25.51 16.11 25.25 16.32C25.14 16.41 25.04 16.5 24.94 16.6C24.78 16.73 24.63 16.89 24.49 17.05V17.06Z" fill="#DEF4E8"/>
<path d="M24.18 27.38C24.36 27.26 24.55 27.15 24.74 27.06C24.2 26.72 23.62 26.46 23.01 26.29C22.37 26.1 21.69 26 21 26C19.13 26 17.37 26.71 16.07 27.99C14.73 29.27 14 30.99 14 32.83V34C14 34.55 14.45 35 15 35H20V34.83C20 34.2 20.07 33.59 20.19 33C20.59 31.18 21.55 29.57 22.89 28.35C23.29 27.99 23.72 27.66 24.18 27.38Z" fill="#DEF4E8"/>
<path d="M37 21C37 21.69 36.91 22.36 36.75 22.99C36.57 23.67 36.31 24.31 35.97 24.91C36.31 24.97 36.65 25 37 25C40.31 25 43 22.31 43 19C43 15.69 40.31 13 37 13C35.64 13 34.35 13.47 33.32 14.28C33.91 14.65 34.44 15.1 34.9 15.61C36.2 17.03 37 18.93 37 21Z" fill="#DEF4E8"/>
<path d="M35.87 33.56C35.87 33.52 35.86 33.48 35.85 33.44C35.82 33.29 35.79 33.14 35.74 33C35.7 32.85 35.65 32.7 35.59 32.55C35.58 32.49 35.56 32.44 35.53 32.39C35.48 32.26 35.43 32.14 35.37 32.0199C35.33 31.9099 35.27 31.7999 35.21 31.6899C35.18 31.6299 35.14 31.5699 35.11 31.5099C34.94 31.1999 34.74 30.9099 34.51 30.6299C34.4 30.4899 34.28 30.3599 34.16 30.2299C33.93 29.9699 33.66 29.7299 33.37 29.5099C33.02 29.2299 32.65 28.9899 32.25 28.7899C32.11 28.7099 31.97 28.6499 31.83 28.5899C31.78 28.5599 31.74 28.5499 31.69 28.5299H31.68C31.68 28.5299 31.68 28.5199 31.67 28.5199C31.65 28.51 31.63 28.4999 31.6 28.4899H31.59C30.79 28.17 29.92 28 29 28C28.76 28 28.52 28.01 28.29 28.04C28.12 28.05 27.96 28.07 27.81 28.11C27.79 28.1 27.77 28.11 27.75 28.12C27.67 28.13 27.59 28.14 27.52 28.16C27.44 28.17 27.36 28.19 27.29 28.22C27.14 28.25 27 28.29 26.85 28.33C26.7 28.38 26.54 28.43 26.4 28.5C26.37 28.5 26.34 28.51 26.31 28.53C26.09 28.62 25.87 28.72 25.67 28.83C25.47 28.93 25.27 29.05 25.09 29.17C24.93 29.28 24.77 29.39 24.62 29.51C24.57 29.54 24.53 29.5799 24.49 29.62C24.34 29.74 24.2 29.86 24.06 30C24.02 30.04 23.98 30.08 23.94 30.12C23.71 30.35 23.51 30.59 23.32 30.85C23.24 30.96 23.16 31.06 23.09 31.18C23.01 31.29 22.94 31.4 22.88 31.52C22.84 31.59 22.8 31.67 22.76 31.75C22.68 31.91 22.6 32.07 22.53 32.24C22.51 32.26 22.5 32.28 22.5 32.3C22.45 32.41 22.41 32.52 22.37 32.64C22.36 32.67 22.35 32.7099 22.34 32.74C22.31 32.83 22.28 32.92 22.26 33C22.21 33.14 22.18 33.29 22.15 33.44C22.14 33.48 22.13 33.52 22.13 33.56C22.08 33.75 22.06 33.94 22.04 34.13C22.01 34.36 22 34.6 22 34.83V35V36C22 36.55 22.45 37 23 37H25H33H35C35.55 37 36 36.55 36 36V35V34.83C36 34.6 35.99 34.36 35.96 34.13C35.94 33.94 35.92 33.75 35.87 33.56Z" fill="#DEF4E8"/>
</g>
<defs>
<filter id="filter0_d" x="0" y="0" width="58" height="58" filterUnits="userSpaceOnUse" color-interpolation-filters="sRGB">
<feFlood flood-opacity="0" result="BackgroundImageFix"/>
<feColorMatrix in="SourceAlpha" type="matrix" values="0 0 0 0 0 0 0 0 0 0 0 0 0 0 0 0 0 0 127 0"/>
<feOffset dy="4"/>
<feGaussianBlur stdDeviation="2"/>
<feColorMatrix type="matrix" values="0 0 0 0 0 0 0 0 0 0 0 0 0 0 0 0 0 0 0.25 0"/>
<feBlend mode="normal" in2="BackgroundImageFix" result="effect1_dropShadow"/>
<feBlend mode="normal" in="SourceGraphic" in2="effect1_dropShadow" result="shape"/>
</filter>
<filter id="filter1_d" x="10" y="13" width="38" height="32" filterUnits="userSpaceOnUse" color-interpolation-filters="sRGB">
<feFlood flood-opacity="0" result="BackgroundImageFix"/>
<feColorMatrix in="SourceAlpha" type="matrix" values="0 0 0 0 0 0 0 0 0 0 0 0 0 0 0 0 0 0 127 0"/>
<feOffset dy="4"/>
<feGaussianBlur stdDeviation="2"/>
<feColorMatrix type="matrix" values="0 0 0 0 0 0 0 0 0 0 0 0 0 0 0 0 0 0 0.25 0"/>
<feBlend mode="normal" in2="BackgroundImageFix" result="effect1_dropShadow"/>
<feBlend mode="normal" in="SourceGraphic" in2="effect1_dropShadow" result="shape"/>
</filter>
</defs>
</svg>

<?xml version="1.0" encoding="UTF-8" standalone="no"?>
<svg
   xmlns:dc="http://purl.org/dc/elements/1.1/"
   xmlns:cc="http://creativecommons.org/ns#"
   xmlns:rdf="http://www.w3.org/1999/02/22-rdf-syntax-ns#"
   xmlns:svg="http://www.w3.org/2000/svg"
   xmlns="http://www.w3.org/2000/svg"
   xmlns:sodipodi="http://sodipodi.sourceforge.net/DTD/sodipodi-0.dtd"
   xmlns:inkscape="http://www.inkscape.org/namespaces/inkscape"
   width="50"
   height="50"
   viewBox="0 0 50 50"
   version="1.1"
   id="svg10191"
   sodipodi:docname="shared.svg"
   style="fill:none"
   inkscape:version="0.92.3 (2405546, 2018-03-11)">
  <metadata
     id="metadata10195">
    <rdf:RDF>
      <cc:Work
         rdf:about="">
        <dc:format>image/svg+xml</dc:format>
        <dc:type
           rdf:resource="http://purl.org/dc/dcmitype/StillImage" />
        <dc:title></dc:title>
      </cc:Work>
    </rdf:RDF>
  </metadata>
  <sodipodi:namedview
     pagecolor="#ffffff"
     bordercolor="#666666"
     borderopacity="1"
     objecttolerance="10"
     gridtolerance="10"
     guidetolerance="10"
     inkscape:pageopacity="0"
     inkscape:pageshadow="2"
     inkscape:window-width="1920"
     inkscape:window-height="1032"
     id="namedview10193"
     showgrid="false"
     fit-margin-top="0"
     fit-margin-left="0"
     fit-margin-right="0"
     fit-margin-bottom="0"
     inkscape:zoom="8.137931"
     inkscape:cx="2.8065276"
     inkscape:cy="22.584123"
     inkscape:window-x="0"
     inkscape:window-y="27"
     inkscape:window-maximized="1"
     inkscape:current-layer="svg10191" />
  <g
     id="g10151"
     transform="translate(-4)">
    <rect
       x="4"
       width="50"
       height="50"
       rx="3"
       id="rect10149"
       y="0"
       style="fill:#4d7962" />
  </g>
  <defs
     id="defs10189" />
  <g
     transform="translate(-4)"
     id="g10859">
    <path
       d="m 37,26 c -0.69,0 -1.36,0.1 -2,0.28 -0.62,0.18 -1.2,0.44 -1.74,0.78 0.19,0.09 0.38,0.2 0.56,0.32 0.46,0.28 0.89,0.61 1.29,0.98 1.34,1.21 2.3,2.82 2.7,4.64 0.12,0.59 0.19,1.2 0.19,1.83 V 35 h 5 c 0.55,0 1,-0.45 1,-1 V 32.83 C 44,29.06 40.86,26 37,26 Z"
       id="path10847"
       inkscape:connector-curvature="0"
       style="fill:#def4e8" />
    <path
       d="m 21,25 c 0.35,0 0.69,-0.03 1.03,-0.09 -0.34,-0.6 -0.6,-1.24 -0.78,-1.92 C 21.09,22.36 21,21.69 21,21 c 0,-2.07 0.8,-3.97 2.1,-5.39 0.46,-0.51 0.9901,-0.96 1.58,-1.33 C 23.65,13.47 22.36,13 21,13 c -3.31,0 -6,2.69 -6,6 0,3.31 2.69,6 6,6 z"
       id="path10849"
       inkscape:connector-curvature="0"
       style="fill:#def4e8" />
    <path
       d="m 24.49,17.06 c -0.05,0.06 -0.11,0.11 -0.15,0.17 -0.06,0.06 -0.1,0.12 -0.14,0.18 -0.09,0.12 -0.17,0.23 -0.24,0.35 -0.06,0.09 -0.12,0.17 -0.16,0.26 -0.06,0.09 -0.11,0.1801 -0.15,0.27 -0.1,0.19 -0.19,0.39 -0.26,0.59 -0.06,0.15 -0.11,0.3 -0.15,0.46 -0.04,0.12 -0.08,0.25 -0.1,0.38 -0.03,0.11 -0.05,0.21 -0.06,0.32 -0.01,0.05 -0.02,0.09 -0.02,0.14 -0.01,0.09 -0.02,0.17 -0.03,0.26 C 23.01,20.62 23,20.81 23,21 c 0,0.18 0.01,0.36 0.03,0.53 0,0.05 0.0099,0.1 0.0099,0.15 0.01,0.14 0.03,0.27 0.06,0.4 0,0.01 0,0.01 0,0.01 0.02,0.09 0.04,0.18 0.06,0.27 0.02,0.13 0.06,0.25 0.1,0.37 0.03,0.12 0.07,0.24 0.12,0.36 0.04,0.11 0.08,0.22 0.13,0.33 0.05,0.12 0.11,0.25 0.18,0.37 0.05,0.1 0.1,0.19 0.16,0.28 0.03,0.05 0.06,0.1 0.09,0.15 0.1,0.15 0.2,0.3 0.32,0.45 0.05,0.07 0.11,0.14 0.17,0.21 0.19,0.23 0.41,0.45 0.64,0.65 0.08,0.07 0.16,0.13 0.25,0.2 0.33,0.26 0.68,0.48 1.05,0.66 0.22,0.11 0.45,0.21 0.68,0.28 0.08,0.03 0.16,0.06 0.25,0.08 0.18,0.05 0.37,0.1 0.56,0.14 0.2,0.04 0.39,0.0699 0.59,0.08 C 28.63,26.99 28.81,27 29,27 c 0.19,0 0.37,-0.01 0.55,-0.03 0.2,-0.01 0.39,-0.04 0.59,-0.08 0.19,-0.04 0.38,-0.09 0.56,-0.14 0.09,-0.02 0.17,-0.05 0.25,-0.08 0.23,-0.07 0.46,-0.17 0.68,-0.28 0.13,-0.0601 0.25,-0.13 0.37,-0.2 0.24,-0.13 0.46,-0.28 0.68,-0.46 0.09,-0.07 0.17,-0.13 0.25,-0.2 0.23,-0.2 0.45,-0.42 0.64,-0.65 0.06,-0.07 0.12,-0.14 0.17,-0.21 0.12,-0.15 0.22,-0.3 0.32,-0.45 0.03,-0.05 0.06,-0.1 0.09,-0.15 0.06,-0.09 0.11,-0.18 0.16,-0.28 0.07,-0.12 0.13,-0.25 0.18,-0.37 0.05,-0.11 0.09,-0.22 0.13,-0.33 0.05,-0.12 0.09,-0.24 0.12,-0.36 0.04,-0.12 0.08,-0.24 0.1,-0.37 0.02,-0.09 0.04,-0.18 0.06,-0.27 0,0 0,0 0,-0.01 0.03,-0.1299 0.05,-0.2599 0.06,-0.4 0,-0.05 0.0099,-0.1 0.0099,-0.15 C 34.99,21.36 35,21.18 35,21 c 0,-0.19 -0.01,-0.38 -0.03,-0.56 0,-0.09 -0.0099,-0.18 -0.03,-0.26 0,-0.05 -0.01,-0.09 -0.02,-0.14 -0.01,-0.11 -0.03,-0.21 -0.06,-0.32 -0.02,-0.13 -0.06,-0.26 -0.1,-0.38 -0.04,-0.16 -0.09,-0.31 -0.15,-0.46 -0.07,-0.2 -0.16,-0.4 -0.26,-0.59 -0.04,-0.09 -0.09,-0.18 -0.15,-0.27 -0.04,-0.09 -0.1,-0.17 -0.16,-0.2599 -0.07,-0.12 -0.15,-0.23 -0.24,-0.35 -0.04,-0.06 -0.08,-0.12 -0.14,-0.18 -0.04,-0.06 -0.1,-0.11 -0.15,-0.17 V 17.05 C 33.36,16.87 33.2,16.71 33.02,16.56 32.93,16.47 32.84,16.39 32.75,16.32 32.49,16.11 32.22,15.93 31.94,15.77 31.83,15.71 31.72,15.65 31.61,15.6 30.82,15.21 29.93,15 29,15 c -0.93,0 -1.82,0.21 -2.61,0.6 -0.11,0.05 -0.22,0.11 -0.33,0.17 -0.28,0.16 -0.55,0.34 -0.81,0.55 -0.11,0.09 -0.21,0.18 -0.31,0.28 -0.16,0.13 -0.31,0.29 -0.45,0.45 z"
       id="path10851"
       inkscape:connector-curvature="0"
       style="fill:#def4e8" />
    <path
       d="m 24.18,27.38 c 0.18,-0.12 0.37,-0.23 0.56,-0.32 C 24.2,26.72 23.62,26.46 23.01,26.29 22.37,26.1 21.69,26 21,26 c -1.87,0 -3.63,0.71 -4.93,1.99 -1.34,1.28 -2.07,3 -2.07,4.84 V 34 c 0,0.55 0.45,1 1,1 h 5 v -0.17 c 0,-0.63 0.07,-1.24 0.19,-1.83 0.4,-1.82 1.36,-3.43 2.7,-4.65 0.4,-0.36 0.83,-0.69 1.29,-0.97 z"
       id="path10853"
       inkscape:connector-curvature="0"
       style="fill:#def4e8" />
    <path
       d="m 37,21 c 0,0.69 -0.09,1.36 -0.25,1.99 -0.18,0.68 -0.44,1.32 -0.78,1.92 0.34,0.06 0.68,0.09 1.03,0.09 3.31,0 6,-2.69 6,-6 0,-3.31 -2.69,-6 -6,-6 -1.36,0 -2.65,0.47 -3.68,1.28 0.59,0.37 1.12,0.82 1.58,1.33 1.3,1.42 2.1,3.32 2.1,5.39 z"
       id="path10855"
       inkscape:connector-curvature="0"
       style="fill:#def4e8" />
    <path
       d="m 35.87,33.56 c 0,-0.04 -0.01,-0.08 -0.02,-0.12 -0.03,-0.15 -0.06,-0.3 -0.11,-0.44 -0.04,-0.15 -0.09,-0.3 -0.15,-0.45 -0.01,-0.06 -0.03,-0.11 -0.06,-0.16 -0.05,-0.13 -0.1,-0.25 -0.16,-0.3701 -0.04,-0.11 -0.1,-0.22 -0.16,-0.33 -0.03,-0.06 -0.07,-0.12 -0.1,-0.18 -0.17,-0.31 -0.37,-0.6 -0.6,-0.88 -0.11,-0.14 -0.23,-0.27 -0.35,-0.4 -0.23,-0.26 -0.5,-0.5 -0.79,-0.72 -0.35,-0.28 -0.72,-0.52 -1.12,-0.72 -0.14,-0.08 -0.28,-0.14 -0.42,-0.2 -0.05,-0.03 -0.09,-0.04 -0.14,-0.06 h -0.01 c 0,0 0,-0.01 -0.01,-0.01 -0.02,-0.0099 -0.04,-0.02 -0.07,-0.03 H 31.59 C 30.79,28.17 29.92,28 29,28 c -0.24,0 -0.48,0.01 -0.71,0.04 -0.17,0.01 -0.33,0.03 -0.48,0.07 -0.02,-0.01 -0.04,0 -0.06,0.01 -0.08,0.01 -0.16,0.02 -0.23,0.04 -0.08,0.01 -0.16,0.03 -0.23,0.06 -0.15,0.03 -0.29,0.07 -0.44,0.11 -0.15,0.05 -0.31,0.1 -0.45,0.17 -0.03,0 -0.06,0.01 -0.09,0.03 -0.22,0.09 -0.44,0.19 -0.64,0.3 -0.2,0.1 -0.4,0.22 -0.58,0.34 -0.16,0.11 -0.32,0.22 -0.47,0.34 -0.05,0.03 -0.09,0.0699 -0.13,0.11 -0.15,0.12 -0.29,0.24 -0.43,0.38 -0.04,0.04 -0.08,0.08 -0.12,0.12 -0.23,0.23 -0.43,0.47 -0.62,0.73 -0.08,0.11 -0.16,0.21 -0.23,0.33 -0.08,0.11 -0.15,0.22 -0.21,0.34 -0.04,0.07 -0.08,0.15 -0.12,0.23 -0.08,0.16 -0.16,0.32 -0.23,0.49 -0.02,0.02 -0.03,0.04 -0.03,0.06 -0.05,0.11 -0.09,0.22 -0.13,0.34 -0.01,0.03 -0.02,0.0699 -0.03,0.1 -0.03,0.09 -0.06,0.18 -0.08,0.26 -0.05,0.14 -0.08,0.29 -0.11,0.44 -0.01,0.04 -0.02,0.08 -0.02,0.12 -0.05,0.19 -0.07,0.38 -0.09,0.57 C 22.01,34.36 22,34.6 22,34.83 V 35 36 c 0,0.55 0.45,1 1,1 h 2 8 2 c 0.55,0 1,-0.45 1,-1 v -1 -0.17 c 0,-0.23 -0.01,-0.47 -0.04,-0.7 -0.02,-0.19 -0.04,-0.38 -0.09,-0.57 z"
       id="path10857"
       inkscape:connector-curvature="0"
       style="fill:#def4e8" />
  </g>
</svg>
